flaticon/design/select.svg

<svg xmlns="http://www.w3.org/2000/svg" width="32" height="32" viewBox="0 0 24 24">
    <path d="M23.703125 18.738281L17.667969 11.660156C17.566406 11.542969 17.410156 11.492188 17.257812 11.535156 17.109375 11.574219 16.996094 11.695312 16.96875 11.847656L15.277344 20.996094C15.246094 21.171875 15.332031 21.34375 15.488281 21.425781 15.546875 21.457031 15.609375 21.46875 15.671875 21.46875 15.777344 21.46875 15.882812 21.425781 15.960938 21.347656L18.710938 18.5 20.105469 23.703125C20.152344 23.882812 20.316406 24 20.492188 24 20.527344 24 20.558594 23.996094 20.59375 23.988281 20.808594 23.929688 20.933594 23.710938 20.878906 23.496094L19.484375 18.296875 23.289062 19.382812C23.460938 19.429688 23.640625 19.363281 23.738281 19.214844 23.832031 19.066406 23.820312 18.875 23.703125 18.738281zM19.023438 17.332031C19.011719 17.328125 19 17.328125 18.988281 17.328125 18.976562 17.324219 18.964844 17.324219 18.953125 17.320312 18.90625 17.316406 18.859375 17.316406 18.816406 17.328125 18.8125 17.328125 18.8125 17.328125 18.8125 17.328125 18.8125 17.328125 18.808594 17.332031 18.808594 17.332031 18.765625 17.34375 18.726562 17.363281 18.6875 17.390625 18.675781 17.398438 18.664062 17.40625 18.65625 17.414062 18.648438 17.421875 18.636719 17.429688 18.628906 17.4375L16.304688 19.839844 17.601562 12.820312 22.234375 18.25zM14.199219 20L14 20C13.777344 20 13.601562 20.179688 13.601562 20.398438 13.601562 20.621094 13.777344 20.800781 14 20.800781L14.199219 20.800781C14.421875 20.800781 14.601562 20.621094 14.601562 20.398438 14.601562 20.179688 14.421875 20 14.199219 20zM10.507812 20L10.117188 20C9.898438 20 9.71875 20.179688 9.71875 20.398438 9.71875 20.621094 9.898438 20.800781 10.117188 20.800781L10.507812 20.800781C10.726562 20.800781 10.90625 20.621094 10.90625 20.398438 10.90625 20.179688 10.726562 20 10.507812 20zM8.566406 20L8.175781 20C7.957031 20 7.777344 20.179688 7.777344 20.398438 7.777344 20.621094 7.957031 20.800781 8.175781 20.800781L8.566406 20.800781C8.785156 20.800781 8.964844 20.621094 8.964844 20.398438 8.964844 20.179688 8.785156 20 8.566406 20zM6.625 20L6.234375 20C6.015625 20 5.835938 20.179688 5.835938 20.398438 5.835938 20.621094 6.015625 20.800781 6.234375 20.800781L6.625 20.800781C6.84375 20.800781 7.023438 20.621094 7.023438 20.398438 7.023438 20.179688 6.84375 20 6.625 20zM4.683594 20L4.292969 20C4.074219 20 3.894531 20.179688 3.894531 20.398438 3.894531 20.621094 4.074219 20.800781 4.292969 20.800781L4.683594 20.800781C4.902344 20.800781 5.082031 20.621094 5.082031 20.398438 5.082031 20.179688 4.902344 20 4.683594 20zM2.742188 20L2.351562 20C2.132812 20 1.953125 20.179688 1.953125 20.398438 1.953125 20.621094 2.132812 20.800781 2.351562 20.800781L2.742188 20.800781C2.960938 20.800781 3.140625 20.621094 3.140625 20.398438 3.140625 20.179688 2.960938 20 2.742188 20zM12.445312 20L12.058594 20C11.835938 20 11.660156 20.179688 11.660156 20.398438 11.660156 20.621094 11.835938 20.800781 12.058594 20.800781L12.445312 20.800781C12.667969 20.800781 12.847656 20.621094 12.847656 20.398438 12.847656 20.179688 12.667969 20 12.445312 20zM.964844 20.035156C.902344 19.894531.761719 19.800781.601562 19.800781.378906 19.800781.199219 19.980469.199219 20.199219L.199219 20.398438C.199219 20.621094.378906 20.800781.601562 20.800781L.800781 20.800781C1.019531 20.800781 1.199219 20.621094 1.199219 20.398438 1.199219 20.238281 1.105469 20.097656.964844 20.035156zM.601562 11C.820312 11 1 10.820312 1 10.601562L1 10.199219C1 9.980469.820312 9.800781.601562 9.800781.378906 9.800781.199219 9.980469.199219 10.199219L.199219 10.601562C.199219 10.820312.378906 11 .601562 11zM.601562 9C.820312 9 1 8.820312 1 8.601562L1 8.199219C1 7.980469.820312 7.800781.601562 7.800781.378906 7.800781.199219 7.980469.199219 8.199219L.199219 8.601562C.199219 8.820312.378906 9 .601562 9zM.601562 17C.820312 17 1 16.820312 1 16.601562L1 16.199219C1 15.980469.820312 15.800781.601562 15.800781.378906 15.800781.199219 15.980469.199219 16.199219L.199219 16.601562C.199219 16.820312.378906 17 .601562 17zM.601562 15C.820312 15 1 14.820312 1 14.601562L1 14.199219C1 13.980469.820312 13.800781.601562 13.800781.378906 13.800781.199219 13.980469.199219 14.199219L.199219 14.601562C.199219 14.820312.378906 15 .601562 15zM.601562 13C.820312 13 1 12.820312 1 12.601562L1 12.199219C1 11.980469.820312 11.800781.601562 11.800781.378906 11.800781.199219 11.980469.199219 12.199219L.199219 12.601562C.199219 12.820312.378906 13 .601562 13zM.601562 19C.820312 19 1 18.820312 1 18.601562L1 18.199219C1 17.980469.820312 17.800781.601562 17.800781.378906 17.800781.199219 17.980469.199219 18.199219L.199219 18.601562C.199219 18.820312.378906 19 .601562 19zM.601562 3C.820312 3 1 2.820312 1 2.601562L1 2.199219C1 1.980469.820312 1.800781.601562 1.800781.378906 1.800781.199219 1.980469.199219 2.199219L.199219 2.601562C.199219 2.820312.378906 3 .601562 3zM.601562 5C.820312 5 1 4.820312 1 4.601562L1 4.199219C1 3.980469.820312 3.800781.601562 3.800781.378906 3.800781.199219 3.980469.199219 4.199219L.199219 4.601562C.199219 4.820312.378906 5 .601562 5zM.601562 7C.820312 7 1 6.820312 1 6.601562L1 6.199219C1 5.980469.820312 5.800781.601562 5.800781.378906 5.800781.199219 5.980469.199219 6.199219L.199219 6.601562C.199219 6.820312.378906 7 .601562 7zM.800781 0L.601562 0C.378906 0 .199219.179688.199219.398438L.199219.601562C.199219.820312.378906 1 .601562 1 .761719 1 .902344.902344.964844.765625 1.105469.703125 1.199219.5625 1.199219.398438 1.199219.179688 1.019531 0 .800781 0zM18.398438.800781L18.800781.800781C19.019531.800781 19.199219.621094 19.199219.398438 19.199219.179688 19.019531 0 18.800781 0L18.398438 0C18.179688 0 18 .179688 18 .398438 18 .621094 18.179688.800781 18.398438.800781zM16.398438.800781L16.800781.800781C17.019531.800781 17.199219.621094 17.199219.398438 17.199219.179688 17.019531 0 16.800781 0L16.398438 0C16.179688 0 16 .179688 16 .398438 16 .621094 16.179688.800781 16.398438.800781zM8.800781 0L8.398438 0C8.179688 0 8 .179688 8 .398438 8 .621094 8.179688.800781 8.398438.800781L8.800781.800781C9.019531.800781 9.199219.621094 9.199219.398438 9.199219.179688 9.019531 0 8.800781 0zM4.800781 0L4.398438 0C4.179688 0 4 .179688 4 .398438 4 .621094 4.179688.800781 4.398438.800781L4.800781.800781C5.019531.800781 5.199219.621094 5.199219.398438 5.199219.179688 5.019531 0 4.800781 0zM6.800781 0L6.398438 0C6.179688 0 6 .179688 6 .398438 6 .621094 6.179688.800781 6.398438.800781L6.800781.800781C7.019531.800781 7.199219.621094 7.199219.398438 7.199219.179688 7.019531 0 6.800781 0zM10.800781 0L10.398438 0C10.179688 0 10 .179688 10 .398438 10 .621094 10.179688.800781 10.398438.800781L10.800781.800781C11.019531.800781 11.199219.621094 11.199219.398438 11.199219.179688 11.019531 0 10.800781 0zM2.800781 0L2.398438 0C2.179688 0 2 .179688 2 .398438 2 .621094 2.179688.800781 2.398438.800781L2.800781.800781C3.019531.800781 3.199219.621094 3.199219.398438 3.199219.179688 3.019531 0 2.800781 0zM12.800781 0L12.398438 0C12.179688 0 12 .179688 12 .398438 12 .621094 12.179688.800781 12.398438.800781L12.800781.800781C13.019531.800781 13.199219.621094 13.199219.398438 13.199219.179688 13.019531 0 12.800781 0zM14.800781 0L14.398438 0C14.179688 0 14 .179688 14 .398438 14 .621094 14.179688.800781 14.398438.800781L14.800781.800781C15.019531.800781 15.199219.621094 15.199219.398438 15.199219.179688 15.019531 0 14.800781 0zM20.234375.765625C20.296875.902344 20.4375 1 20.601562 1 20.820312 1 21 .820312 21 .601562L21 .398438C21 .179688 20.820312 0 20.601562 0L20.398438 0C20.179688 0 20 .179688 20 .398438 20 .5625 20.097656.703125 20.234375.765625zM21 7.9375C21 7.71875 20.820312 7.539062 20.601562 7.539062 20.378906 7.539062 20.199219 7.71875 20.199219 7.9375L20.199219 8.324219C20.199219 8.546875 20.378906 8.722656 20.601562 8.722656 20.820312 8.722656 21 8.546875 21 8.324219zM21 9.871094C21 9.648438 20.820312 9.46875 20.601562 9.46875 20.378906 9.46875 20.199219 9.648438 20.199219 9.871094L20.199219 10.253906C20.199219 10.476562 20.378906 10.65625 20.601562 10.65625 20.820312 10.65625 21 10.476562 21 10.253906zM21 6.007812C21 5.785156 20.820312 5.605469 20.601562 5.605469 20.378906 5.605469 20.199219 5.785156 20.199219 6.007812L20.199219 6.394531C20.199219 6.613281 20.378906 6.792969 20.601562 6.792969 20.820312 6.792969 21 6.613281 21 6.394531zM21 2.144531C21 1.921875 20.820312 1.746094 20.601562 1.746094 20.378906 1.746094 20.199219 1.921875 20.199219 2.144531L20.199219 2.53125C20.199219 2.753906 20.378906 2.929688 20.601562 2.929688 20.820312 2.929688 21 2.753906 21 2.53125zM21 4.074219C21 3.855469 20.820312 3.675781 20.601562 3.675781 20.378906 3.675781 20.199219 3.855469 20.199219 4.074219L20.199219 4.460938C20.199219 4.683594 20.378906 4.863281 20.601562 4.863281 20.820312 4.863281 21 4.683594 21 4.460938zM20.601562 11.398438C20.378906 11.398438 20.199219 11.578125 20.199219 11.800781L20.199219 12C20.199219 12.222656 20.378906 12.398438 20.601562 12.398438 20.820312 12.398438 21 12.222656 21 12L21 11.800781C21 11.578125 20.820312 11.398438 20.601562 11.398438zM20.601562 11.398438"/>
</svg>

<svg xmlns="http://www.w3.org/2000/svg" width="32" height="32" viewBox="0 0 24 24">
    <path d="M23.703 18.738l-6.035-7.078a.396.396 0 0 0-.41-.125.395.395 0 0 0-.29.313l-1.69 9.148a.404.404 0 0 0 .21.43.412.412 0 0 0 .473-.078l2.75-2.848 1.394 5.203a.4.4 0 1 0 .774-.207l-1.395-5.2 3.805 1.087a.406.406 0 0 0 .45-.168.4.4 0 0 0-.036-.477zm-4.68-1.406c-.011-.004-.023-.004-.035-.004-.011-.004-.023-.004-.035-.008a.398.398 0 0 0-.137.008h-.003l-.004.004a.385.385 0 0 0-.122.059c-.011.007-.023.015-.03.023l-.028.023-2.324 2.403 1.297-7.02 4.632 5.43zm0 0M14.2 20H14a.398.398 0 0 0-.398.398c0 .223.175.403.398.403h.2a.401.401 0 0 0 0-.8zm0 0M10.508 20h-.39a.4.4 0 0 0 0 .8h.39a.401.401 0 0 0 0-.8zm0 0M8.566 20h-.39a.4.4 0 0 0 0 .8h.39a.401.401 0 0 0 0-.8zm0 0M6.625 20h-.39a.4.4 0 0 0 0 .8h.39a.401.401 0 0 0 0-.8zm0 0M4.684 20h-.391a.4.4 0 0 0 0 .8h.39a.401.401 0 0 0 0-.8zm0 0M2.742 20h-.39a.4.4 0 0 0 0 .8h.39a.401.401 0 0 0 0-.8zm0 0M12.445 20h-.386a.398.398 0 0 0-.399.398c0 .223.176.403.399.403h.386a.401.401 0 0 0 0-.8zm0 0M.965 20.035a.401.401 0 0 0-.766.164v.2c0 .222.18.402.403.402H.8a.401.401 0 0 0 .164-.766zm0 0M.602 11A.4.4 0 0 0 1 10.602v-.403a.4.4 0 0 0-.8 0v.403c0 .218.179.398.402.398zm0 0M.602 9A.4.4 0 0 0 1 8.602v-.403a.4.4 0 0 0-.8 0v.403C.2 8.82.378 9 .601 9zm0 0M.602 17A.4.4 0 0 0 1 16.602v-.403a.4.4 0 0 0-.8 0v.403c0 .218.179.398.402.398zm0 0M.602 15A.4.4 0 0 0 1 14.602v-.403a.4.4 0 0 0-.8 0v.403c0 .218.179.398.402.398zm0 0M.602 13A.4.4 0 0 0 1 12.602v-.403a.4.4 0 0 0-.8 0v.403c0 .218.179.398.402.398zm0 0M.602 19A.4.4 0 0 0 1 18.602v-.403a.4.4 0 0 0-.8 0v.403c0 .218.179.398.402.398zm0 0M.602 3A.4.4 0 0 0 1 2.602v-.403a.4.4 0 0 0-.8 0v.403C.2 2.82.378 3 .601 3zm0 0M.602 5A.4.4 0 0 0 1 4.602v-.403a.4.4 0 0 0-.8 0v.403C.2 4.82.378 5 .601 5zm0 0M.602 7A.4.4 0 0 0 1 6.602v-.403a.4.4 0 0 0-.8 0v.403C.2 6.82.378 7 .601 7zm0 0M.8 0H.603a.401.401 0 0 0-.403.398v.204a.401.401 0 0 0 .766.164A.4.4 0 0 0 .8 0zm0 0M18.398.8h.403a.401.401 0 0 0 0-.8h-.403a.4.4 0 0 0 0 .8zm0 0M16.398.8h.403a.401.401 0 0 0 0-.8h-.403a.4.4 0 0 0 0 .8zm0 0M8.8 0h-.402a.4.4 0 0 0 0 .8h.403a.401.401 0 0 0 0-.8zm0 0M4.8 0h-.402a.4.4 0 0 0 0 .8h.403a.401.401 0 0 0 0-.8zm0 0M6.8 0h-.402a.4.4 0 0 0 0 .8h.403a.401.401 0 0 0 0-.8zm0 0M10.8 0h-.402a.4.4 0 0 0 0 .8h.403a.401.401 0 0 0 0-.8zm0 0M2.8 0h-.402a.4.4 0 0 0 0 .8h.403a.401.401 0 0 0 0-.8zm0 0M12.8 0h-.402a.4.4 0 0 0 0 .8h.403a.401.401 0 0 0 0-.8zm0 0M14.8 0h-.402a.4.4 0 0 0 0 .8h.403a.401.401 0 0 0 0-.8zm0 0M20.234.766A.4.4 0 0 0 21 .602V.398A.4.4 0 0 0 20.602 0h-.204a.4.4 0 0 0-.164.766zm0 0M21 7.938a.4.4 0 0 0-.8 0v.386c0 .223.179.399.402.399A.398.398 0 0 0 21 8.324zm0 0M21 9.871a.401.401 0 1 0-.8 0v.383a.401.401 0 0 0 .8 0zm0 0M21 6.008a.401.401 0 1 0-.8 0v.387a.401.401 0 0 0 .8 0zm0 0M21 2.145a.398.398 0 0 0-.398-.399.398.398 0 0 0-.403.399v.386c0 .223.18.399.403.399A.398.398 0 0 0 21 2.53zm0 0M21 4.074a.4.4 0 0 0-.8 0v.387a.401.401 0 0 0 .8 0zm0 0M20.602 11.398a.402.402 0 0 0-.403.403V12c0 .223.18.398.403.398A.398.398 0 0 0 21 12v-.2a.401.401 0 0 0-.398-.402zm0 0"/>
</svg>
